src/assets/duotone/SearchStatus.svg

<svg width="24" height="24" viewBox="0 0 24 24"  xmlns="http://www.w3.org/2000/svg">
<path opacity="0.4" d="M11.0002 20.0102C15.9763 20.0102 20.0102 15.9763 20.0102 11.0002C20.0102 6.02415 15.9763 1.99023 11.0002 1.99023C6.02415 1.99023 1.99023 6.02415 1.99023 11.0002C1.99023 15.9763 6.02415 20.0102 11.0002 20.0102Z" />
<path d="M14 10.25H8C7.59 10.25 7.25 9.91 7.25 9.5C7.25 9.09 7.59 8.75 8 8.75H14C14.41 8.75 14.75 9.09 14.75 9.5C14.75 9.91 14.41 10.25 14 10.25Z" />
<path d="M11 13.25H8C7.59 13.25 7.25 12.91 7.25 12.5C7.25 12.09 7.59 11.75 8 11.75H11C11.41 11.75 11.75 12.09 11.75 12.5C11.75 12.91 11.41 13.25 11 13.25Z" />
<path d="M21.9901 18.95C21.6601 18.34 20.9601 18 20.0201 18C19.3101 18 18.7001 18.29 18.3401 18.79C17.9801 19.29 17.9001 19.96 18.1201 20.63C18.5501 21.93 19.3001 22.22 19.7101 22.27C19.7701 22.28 19.8301 22.28 19.9001 22.28C20.3401 22.28 21.0201 22.09 21.6801 21.1C22.2101 20.33 22.3101 19.56 21.9901 18.95Z" />
</svg>

<?xml version="1.0" encoding="UTF-8"?>
<svg width="24" height="24" viewBox="0 0 24 24" xmlns="http://www.w3.org/2000/svg">
 <path d="m11 20.01c4.9761 0 9.01-4.0339 9.01-9.01 0-4.976-4.0339-9.01-9.01-9.01-4.976 0-9.01 4.0339-9.01 9.01 0 4.9761 4.0339 9.01 9.01 9.01z" opacity=".4"/>
 <path d="m14 10.25h-6c-0.41 0-0.75-0.34-0.75-0.75s0.34-0.75 0.75-0.75h6c0.41 0 0.75 0.34 0.75 0.75s-0.34 0.75-0.75 0.75z"/>
 <path d="m11 13.25h-3c-0.41 0-0.75-0.34-0.75-0.75s0.34-0.75 0.75-0.75h3c0.41 0 0.75 0.34 0.75 0.75s-0.34 0.75-0.75 0.75z"/>
 <path d="m21.99 18.95c-0.33-0.61-1.03-0.95-1.97-0.95-0.71 0-1.32 0.29-1.68 0.79s-0.44 1.17-0.22 1.84c0.43 1.3 1.18 1.59 1.59 1.64 0.06 0.01 0.12 0.01 0.19 0.01 0.44 0 1.12-0.19 1.78-1.18 0.53-0.77 0.63-1.54 0.31-2.15z"/>
</svg>
